X:1
T:(c.l586- 1629)
T:(d = 47)
T:Antonio Cifra
T:Magi Videntes Stellam
C:Antonio Cifra
%%score 1 2 3
L:1/8
Q:1/2=47
M:3/2
K:C
V:1 bass nm="Bass 1" snm="B1"
V:2 bass nm="Bass 2" snm="B2"
V:3 bass nm="Bass 3" snm="B3"
V:1
 A,4 A,2 F,2 E, D, E,2 | A,,4 z4 z4 | z12 | z4 z A, A,2 A,/ B,/ C2 B, | %4
w: Ma\- gi vi\- den\-tes\- * stel\-|lam||di xe- runt ad in- vi-|
[M:2/2] C F, F,2 F, A, G,3/2 G,/ | C, C C2 C C D3/2 D/ | C4 z2 A,2 | ^G,4 A,2 C A, | %8
w: cem, di- xe- runt ad in- vi-|cem, di- xe- runt ad in- vi-|cem: Hoc|si- gnum- ma- gni-|
 B,3 B, A,2 A,,2 |[M:3/2] E,4 A,,2 A, A, A,3 ^G, | A,4 z2 F,2 C,2 F,, F, | %11
w: re- gis est, hoc|si- gnum ma- gni- re- gis|est. E- a- mus, e-|
[M:2/2] E,2 F, A, G,2 F, F,, | C,2 F,,2 z F, F, F, | F,2 F,2 z F, F, F, | F,2 F, F,2 F, G,3/2 G,/ | %15
w: a- mus, e- a- mus, e-|a- mus et in- qui-|ra- mus et of- fe-|ra- mus e- i mu- ne-|
[M:3/2] G,4 C4 A,2 B,2- |[M:2/2] B,2 A,2 B,4 | A,4 z A, A, A, | A,2 A, D, D, F,2 E, | E,4 z2 A,2- | %20
w: ra, aur- rum thus|_ et myr-|rham, et of- fe-|ra- mus e- i mu- ne-|ra au-|
[M:3/2] A,2 F,2 ^G, G, A,4 G,2 |[M:2/2] A,3 (A, ^F,/G,/A,/F,/ G,) E, | F, A, F, G, C,2 z2 | z8 | %24
w: * rum thus et myr- *|rham. Al- le- * * * * lu-|ia, al- le- lu- ia,||
 z2 z G, (^F,/G,/A,/F,/ G,) G,, | C, A,, E,3/2 E,/ A,,2 z2 | C4 B,2 B,2 | A,8 |] %28
w: al- le- * * * * lu-|ia, al- le- lu- ia,|al- le- lu-|ia.|
V:2
 z12 | z12 | A,4 A,2 F,2 E, D, E,2 | A,,4 z F, F,2 F, A, G,3/2 G,/ |[M:2/2] C, C C2 C C D3/2 D/ | %5
w: ||Ma\- gi vi\- den\-tes\- * stel-|lam di- xe- runt ad in- vi-|cem, di- xe- runt ad in vi-|
 C A, A,2 A,/ B,/ C2 B, | C4 z4 | z8 | z4 z2 A,2 |[M:3/2] ^G,4 A,2 C A, B,3 B, | A,4 z4 z4 | %11
w: cem, di- xe- runt ad in vi-|cem:||Hoc|si- gnum ma- gni re- gis|est.|
[M:2/2] z2 F,2 C,2 F,, F, | E,2 F,2 z D, D, D, | D,2 D,2 z _B,, B,, B,, | %14
w: E- a- mus, e-|a- mus et in- qui-|ra- mus et of- fe-|
 _B,,2 A,, B,,2 D, D,3/2 D,/ |[M:3/2] C,4 z2 F,4 D,2 |[M:2/2] E,2 F,2 E,4 | A,,4 z F, F, F, | %18
w: ra\-- mus e- i mu- ne-|ra au- rum|thus et myr-|rham, et of- fe-|
 F,2 F, F,2 F, G,3/2 G,/ | G,4 z2 F,2- |[M:3/2] F,2 D,2 E,2 F,2 E,4 |[M:2/2] A,,4 z4 | z8 | %23
w: ra- mus e- i mu- ne-|ra au-|* rum thus et myr-|rham.||
 z4 z2 z G, | (^F,/G,/A,/F,/ G,) G,, D,2 z2 | z4 z (A, ^G,/A,/B,/G,/ | A,2) (A,4 ^G,2) | A,8 |] %28
w: Al-|le- * * * * lu- ia,|al- le- * * *|* lu- *|ia.|
V:3
 z12 | A,4 A,2 F,2 E, D, E,2 | A,,4 z4 z4 | z4 z C C2 C C D3/2 D/ |[M:2/2] C A, A,2 A,/ B,/ C2 B, | %5
w: |Ma\- gi vi\- den\-tes\- * stel\-|lam|di- xe- runt ad in\- vi\-|cem,\- di- xe runt ad in- vi-|
 C F, F,2 F, A, G,3/2 G,/ | C,4 z4 | z4 z2 A,2 | ^G,4 A,2 C A, |[M:3/2] B,3 B, A,2 A,, A,, E,3 E, | %10
w: cem, di- xe- runt ad in- vi-|cem:|Hoc|si- gnum ma- gni|re- gis est, ma- gni re- gis|
 A,,4 z4 z2 F,2 |[M:2/2] C,2 F,, F, E,2 F, A, | G,2 F,2 z A, A, A, | A,2 A,2 z D, D, D, | %14
w: est. E-|a- mus, e- a- mus, e-|a- mus et in- qui-|ra- mus et of- fe-|
 D,2 C, D,2 F, E,3/2 E,/ |[M:3/2] E,4 z2 A,4 F,2 |[M:2/2] ^G, G, A,4 G,2 | A,4 z D, D, D, | %18
w: ra- mus e- i mu- ne-|ra au- rum|thus et myr- *|ham, et of- fe-|
 D,2 A,, _B,,2 D, C,3/2 C,/ | C,4 C4 |[M:3/2] A,2 B,4 A,2 B,4 |[M:2/2] A,4 z4 | %22
w: ra- mus e- i mu- ne-|ra au-|rum thus et myr-|rham.|
 z4 z C, (B,,/C,/D,/B,,/ | C,) C, D, E, C, D, G,,2 | z8 | z A, (^G,/A,/B,/G,/ A,) A,, E, E, | %26
w: AL- le- * * *|* lu- ia, al- le- lu- ia,||al- le- * * * * lu- ia, al-|
 A,,4 E,4 | A,,8 |] %28
w: le- lu-|ia.|

